X: 13
T: Missa L'homme arm\'e / Credo
N: Derived from Duf1004c-Missa_Lhomme_arme-Credo.krn
C: Guillaume Du Fay
%%abc-version 2.0
%%abcx-abcm2ps-target-version 5.9.1 (29 Sep 2008)
%%abc-creator hum2abc beta
%%abcx-conversion-date 2019/02/16 20:31:46
%%abc-edited-by Jesse Rodin
%%abc-edited-by Planchart/Rodin
%%abcx-initial-encoding-date 2013/12/08/
%%humdrum-veritas 2630493480
%%humdrum-veritas-data 1114807102
%%linebreak <none>
%%barnumbers 0
L: 1/4
M: 3/1
Q: 1/2=120
%%staves [1 2 3 4]
V: 1 clef=treble
V: 2 clef=treble-8
V: 3 clef=treble-8
V: 4 clef=bass
K: F
[V:1] G6A2=B4 | 
[V:2] G8G4 | 
[V:3] z12 | 
[V:4] z12 | 
[V:1] c4=B2d4c2 | 
[V:2] A4G8 | 
[V:3] z12 | 
[V:4] z12 | 
[V:1] =B2G2A4A4 | 
[V:2] G4F6E2 | 
[V:3] z12 | 
[V:4] z12 | 
[V:1] =B6G2G4 | 
[V:2] G8G4 | 
[V:3] z12 | 
[V:4] z12 | 
[V:1] z4c4c4 | 
[V:2] c6B2A4 | 
[V:3] z12 | 
[V:4] z12 | 
[V:1] =B4G2d2c2B2- | 
[V:2] G8G4 | 
[V:3] z12 | 
[V:4] z12 | 
[V:1] BAA3GE2F2D2 | 
[V:2] d4c4d4 | 
[V:3] z12 | 
[V:4] z12 | 
[V:1] z2d2ce2d=B2A2 | 
[V:2] e2f2e2g4f2 | 
[V:3] z12 | 
[V:4] z12 | 
[V:1] z2G2F2A3GF2 | 
[V:2] e4d4a4 | 
[V:3] z12 | 
[V:4] z12 | 
[V:1] E4z2D2EG2F | 
[V:2] g2e2f4e4 | 
[V:3] z12 | 
[V:4] z12 | 
[V:1] D2F2E4z2F2- | 
[V:2] f2d4^c2d4 | 
[V:3] z12 | 
[V:4] z12 | 
[V:1] FDE2D2C2F4 | 
[V:2] z2A2B2A4d2 | 
[V:3] z12 | 
[V:4] z12 | 
[V:1] E2D2A3=Bc2d2 | 
[V:2] c2d4f2e2f2 | 
[V:3] z12 | 
[V:4] z12 | 
[V:1] e2e2A4=B2c2 | 
[V:2] g2a4d4e2 | 
[V:3] z12 | 
[V:4] z12 | 
[V:1] d3c=BAA4G2 | 
[V:2] f2d4c2B4 | 
[V:3] z12 | 
[V:4] z12 | 
[V:1] A4z4z4 | 
[V:2] A12 | 
[V:3] z12 | 
[V:4] z12 | 
[V:1] A4G2F4E2 | 
[V:2] z12 | 
[V:3] z12 | 
[V:4] z12 | 
[V:1] D2F2E2D2C4 | 
[V:2] a4g2f4e2 | 
[V:3] z12 | 
[V:4] z12 | 
[V:1] z2D2C2F2E4 | 
[V:2] d2f2e2d2c4 | 
[V:3] z12 | 
[V:4] z12 | 
[V:1] D4A4G4 | 
[V:2] z2d2c2f2e4 | 
[V:3] z12 | 
[V:4] z12 | 
[V:1] ^F3GA2=B2G2B2 | 
[V:2] d6g6 | 
[V:3] z12 | 
[V:4] z12 | 
[V:1] A3GG4z2D2- | 
[V:2] ^f4g4G3=F | 
[V:3] z12 | 
[V:4] z12 | 
[V:1] DCD3EFGA2=B2 | 
[V:2] G3ABcd3cd2 | 
[V:3] z12 | 
[V:4] z12 | 
[V:1] c2A4d4=B2 | 
[V:2] e2f2d4g4 | 
[V:3] z12 | 
[V:4] z12 | 
[V:1] c2d4G4A2 | 
[V:2] e2f2g4c3d | 
[V:3] z12 | 
[V:4] z12 | 
[V:1] G2c2=B2G4F2 | 
[V:2] e2c2G2B2A4 | 
[V:3] z12 | 
[V:4] z12 | 
[V:1] G2D2z2F2E2G2- | 
[V:2] G2z2B2A2c3B | 
[V:3] z12 | 
[V:4] z12 | 
[V:1] GFD2A3GA=Bc2 | 
[V:2] G2d3cd2f2e2 | 
[V:3] z12 | 
[V:4] z12 | 
[V:1] =B2d3cA2c2BA | 
[V:2] g3fd2f2e2d2- | 
[V:3] z12 | 
[V:4] z12 | 
[V:1] GFE2D2G4^F2 | 
[V:2] d2c2d2B2A4 | 
[V:3] z12 | 
[V:4] z12 | 
[V:1] G12 | 
[V:2] G8B2c2 | 
[V:3] G12- | 
[V:4] z12 | 
[V:1] z12 | 
[V:2] d6g4f2 | 
[V:3] G12 | 
[V:4] z12 | 
[V:1] G4=B2c2d4- | 
[V:2] e2d2d8 | 
[V:3] z12 | 
[V:4] G,12 | 
[V:1] d4G8 | 
[V:2] z4z4d4 | 
[V:3] G12 | 
[V:4] B,12 | 
[V:1] A8A4 | 
[V:2] e4f8 | 
[V:3] c12- | 
[V:4] A,4F,8 | 
[V:1] G4A2c4=B2 | 
[V:2] e8g4 | 
[V:3] c12 | 
[V:4] C,12 | 
[V:1] A4G8 | 
[V:2] f4d8- | 
[V:3] c4B8 | 
[V:4] F,4G,8 | 
[V:1] ^F6G2F2E2 | 
[V:2] d8z4 | 
[V:3] A12 | 
[V:4] D,12 | 
[V:1] G4z4B4 | 
[V:2] d4d2g4g2 | 
[V:3] G12- | 
[V:4] z4z4D4 | 
[V:1] A2d4c2B4 | 
[V:2] g8g4 | 
[V:3] G12 | 
[V:4] D12 | 
[V:1] A8B2G2 | 
[V:2] e8d4 | 
[V:3] z12 | 
[V:4] C8B,4- | 
[V:1] G4A2E2^F3E | 
[V:2] d4c4z2c2 | 
[V:3] z12 | 
[V:4] B,4A,8 | 
[V:1] G4A2B4G2 | 
[V:2] d2B4G2B4 | 
[V:3] d8d4- | 
[V:4] G,8G,4 | 
[V:1] F4G4G4 | 
[V:2] A2B2c6Bc | 
[V:3] d4G8 | 
[V:4] D,4E,8 | 
[V:1] A6F2F4 | 
[V:2] d4z4z4 | 
[V:3] z12 | 
[V:4] D,12- | 
[V:1] z4z4F4 | 
[V:2] f6g2a4 | 
[V:3] d12- | 
[V:4] D,12 | 
[V:1] F6G2A4 | 
[V:2] a8f4 | 
[V:3] d12 | 
[V:4] z12 | 
[V:1] B4A2d4c2 | 
[V:2] g4f2a2g3f | 
[V:3] d12 | 
[V:4] G,4D,4G,4- | 
[V:1] B4c4A4 | 
[V:2] d2g2e2f3ga2 | 
[V:3] d4c8 | 
[V:4] G,4A,4F,4 | 
[V:1] G4z4A4 | 
[V:2] d2g2a2^f4e2 | 
[V:3] B4A8 | 
[V:4] G,4D,8 | 
[V:1] D8D4 & =B8B4 | 
[V:2] g12 | 
[V:3] G12 | 
[V:4] z4z4G,4 | 
[V:1] G12 | 
[V:2] z12 | 
[V:3] d8d4 | 
[V:4] G,12- | 
[V:1] B2c2d4G4 | 
[V:2] z12 | 
[V:3] d4B2c2d4 | 
[V:4] G,12 | 
[V:1] z4d6c2 | 
[V:2] g8g4 | 
[V:3] G12 | 
[V:4] B,6C2D4 | 
[V:1] B2A2A4F2G2 | 
[V:2] f4e2c2d4 | 
[V:3] z12 | 
[V:4] D4C2A,2B,4 | 
[V:1] A2F2E2G3DE2 | 
[V:2] c6B6 | 
[V:3] z12 | 
[V:4] A,4G,8 | 
[V:1] F2D2_EDCB,C3B, | 
[V:2] A4B4G4 | 
[V:3] z12 | 
[V:4] F,4G,3D,_E,4 | 
[V:1] D4z2G2A2c2 | 
[V:2] A4B4A4 | 
[V:3] z12 | 
[V:4] D,4G,4F,4 | 
[V:1] =B3GB2c2d4 | 
[V:2] G2d4c2=B3A | 
[V:3] g12- | 
[V:4] G,12 | 
[V:1] e8c4 | 
[V:2] c8e4 | 
[V:3] g12 | 
[V:4] C,12 | 
[V:1] A2d4c2A2=B2 | 
[V:2] z4d8 | 
[V:3] f12 | 
[V:4] D,12 | 
[V:1] c6d2e4 | 
[V:2] e12 | 
[V:3] g12 | 
[V:4] C,12 | 
[V:1] d2c2A4G2d2- | 
[V:2] f8g4 | 
[V:3] d12 | 
[V:4] z4z4G,4- | 
[V:1] dcA2=B2G4^F2 | 
[V:2] d8c4 | 
[V:3] z12 | 
[V:4] G,2F,2G,2B,2A,4 | 
[V:1] G4B8 | 
[V:2] d12 | 
[V:3] g8g4 | 
[V:4] G,12 | 
[V:1] A8A4 | 
[V:2] z12 | 
[V:3] f12 | 
[V:4] D12 | 
[V:1] B4G8 | 
[V:2] d8B4- | 
[V:3] g4d2g3fe2 | 
[V:4] G,12 | 
[V:1] d4z4d4- | 
[V:2] B4G4B2c2 | 
[V:3] d12 | 
[V:4] z4z4G,4 | 
[V:1] d4=B4c4 | 
[V:2] d8e4 | 
[V:3] z4g8 | 
[V:4] D,2G,4F,2E,4 | 
[V:1] d4c2A2=B4 | 
[V:2] f8d4- | 
[V:3] a8g4 | 
[V:4] D,4F,4G,4 | 
[V:1] A4G8 | 
[V:2] d4=B4c4 | 
[V:3] f4e8 | 
[V:4] D,4E,4C,4 | 
[V:1] F12 | 
[V:2] A12 | 
[V:3] d12 | 
[V:4] D,12 | 
[V:1] z2G2F2G2A4 | 
[V:2] B4A2B2c2d2- | 
[V:3] z12 | 
[V:4] z12 | 
[V:1] B2A4d4c2 | 
[V:2] d2c2d2f2e4 | 
[V:3] z12 | 
[V:4] z12 | 
[V:1] d3cB2A4B2 | 
[V:2] d2g3ff2d4 | 
[V:3] z12 | 
[V:4] z12 | 
[V:1] A3GF2E2F2D2 | 
[V:2] c2d3Bc2d2z2 | 
[V:3] z12 | 
[V:4] z12 | 
[V:1] z2A2B3A/G/F2c2- | 
[V:2] G2F2G2B2A3B | 
[V:3] z12 | 
[V:4] z12 | 
[V:1] cBAGG2E2^F2z2 | 
[V:2] c2d2B2G2A4 | 
[V:3] z12 | 
[V:4] z12 | 
[V:1] G2AB2cA2G2d2- | 
[V:2] G2d2e2f2g3f | 
[V:3] z12 | 
[V:4] z12 | 
[V:1] dcA2BABG2^FFE | 
[V:2] d2c2d2G2A4 | 
[V:3] z12 | 
[V:4] z12 | 
[V:1] G12 | 
[V:2] G4z4z4 | 
[V:3] G12- | 
[V:4] D4B,2C2D4 | 
[V:1] z12 | 
[V:2] z12 | 
[V:3] G8F4 | 
[V:4] G,2D4B,2A,4 | 
[V:1] (3d8d4B6- | 
[V:2] B3cd2G2g3f | 
[V:3] G12- | 
[V:4] [M:3/1]G,6D6 | 
[V:1] (3:2:5B2G4B6c2d4 | 
[V:2] [M:4/1]g6d3g3 | 
[V:3] G12 | 
[V:4] D6B,6 | 
[V:1] (3e8c4A6- | 
[V:2] a6e3f3 | 
[V:3] c12- | 
[V:4] A,6A,6 | 
[V:1] (3:2:5A2G4c6=B2A4 | 
[V:2] e3z3/g3/a3/f3e3/ | 
[V:3] c12 | 
[V:4] C6F,6 | 
[V:1] (3:2:4G8G4D4z2 | 
[V:2] d9/g3f3/g3 | 
[V:3] B12 | 
[V:4] G,6G,6 | 
[V:1] (3:2:5x2e4c4A4c4 | 
[V:2] a3e3^f9/e3// ^f3// | 
[V:3] A12 | 
[V:4] C6C6 | 
[V:1] (3=B4d8G6 | 
[V:2] g6g3d3 | 
[V:3] G12- | 
[V:4] D6D6 | 
[V:1] (3:2:7F2E2D2D2z2G4B4 | 
[V:2] z3d3G3g3 | 
[V:3] G12 | 
[V:4] B,4G,2B,3CD2 | 
[V:1] (3:2:5A4d6c2A4F2- | 
[V:2] f3/g3/a3d3A3 | 
[V:3] d12- | 
[V:4] D,6D,4D,2 | 
[V:1] (3:2:7F2G4D2G2A2^F4E2 | 
[V:2] B3/G3/B3A6 | 
[V:3] d12 | 
[V:4] G,2G,4D,6 | 
[V:1] G12 | 
[V:2] [M:3/1]B4G2B4c2 | 
[V:3] G12 | 
[V:4] [M:3/1]D8D4 | 
[V:1] z12 | 
[V:2] d2e2f2g3fd2 | 
[V:3] z12 | 
[V:4] G,4A,2B,2G,4 | 
[V:1] z12 | 
[V:2] c2f2e2d4^c2 | 
[V:3] z12 | 
[V:4] A,3F,G,2F,2E,4 | 
[V:1] F3GA2B2A2d2- | 
[V:2] d8f4 | 
[V:3] z12 | 
[V:4] D,12 | 
[V:1] d2c2d3cBAA2- | 
[V:2] e4d8 | 
[V:3] z12 | 
[V:4] z12 | 
[V:1] AGA2B2G4^F2 | 
[V:2] c4d2B2A4 | 
[V:3] z12 | 
[V:4] z12 | 
[V:1] G4z4G4 | 
[V:2] G12 | 
[V:3] d12- | 
[V:4] z12 | 
[V:1] F2G2A4B4 | 
[V:2] z12 | 
[V:3] d12- | 
[V:4] D,8G,4 | 
[V:1] A2d3cB2A4 | 
[V:2] z12 | 
[V:3] d12- | 
[V:4] F,2G,2D,2G,4^F,2 | 
[V:1] G12 | 
[V:2] z4z4g4 | 
[V:3] d12 | 
[V:4] G,8G,4 | 
[V:1] z4z4A4 | 
[V:2] f3ga4f3e | 
[V:3] d4c2B2A4 | 
[V:4] B,4A,2D4C2 | 
[V:1] B4c8 | 
[V:2] g4e4a4 | 
[V:3] G4A4F4 | 
[V:4] D4C2B,2A,4 | 
[V:1] d4c2B2A4 | 
[V:2] d3cA2G2z4 | 
[V:3] B4c2d4A2 | 
[V:4] G,4z4F,4 | 
[V:1] G4E4F4 | 
[V:2] d4c2B2A4 | 
[V:3] B4A4d4 | 
[V:4] G,4A,4D,4 | 
[V:1] G2B2A2F3GA2 | 
[V:2] G4A8 | 
[V:3] d8c4 | 
[V:4] z4D,4F,4 | 
[V:1] D4(3G2A2^F2(3G2F3E | 
[V:2] z2d6d4 | 
[V:3] B4A8 | 
[V:4] G,4D,8 | 
[V:1] G12 ||  
[V:2] B3cd8 ||  
[V:3] G12 ||  
[V:4] G,12 & D12 ||  
[V:1]  [K:F] [K:clef=treble][M:4/2]G8- | 
[V:2]  [K:F] [K:clef=treble-8][M:4/2]g8- | 
[V:3]  [K:F] [K:clef=treble-8][M:4/2]z8 | 
[V:4]  [K:F] [K:clef=bass][M:4/2]z8 | 
[V:1] G8 | 
[V:2] g8 | 
[V:3] z8 | 
[V:4] z8 | 
[V:1] A4=B4 | 
[V:2] f4g4 | 
[V:3] z8 | 
[V:4] z8 | 
[V:1] c8 | 
[V:2] a8 | 
[V:3] z8 | 
[V:4] z8 | 
[V:1] =B6G2 | 
[V:2] g8 | 
[V:3] z8 | 
[V:4] z8 | 
[V:1] A4=B4 | 
[V:2] f4g4- | 
[V:3] z8 | 
[V:4] z8 | 
[V:1] G6E2 | 
[V:2] g4c4 | 
[V:3] z8 | 
[V:4] z8 | 
[V:1] F4E4 | 
[V:2] d4c4 | 
[V:3] z8 | 
[V:4] z8 | 
[V:1] D8 | 
[V:2] f8 | 
[V:3] z8 | 
[V:4] z8 | 
[V:1] C8 | 
[V:2] e4g4- | 
[V:3] z8 | 
[V:4] z8 | 
[V:1] =B,4C4 | 
[V:2] g2f2e4 | 
[V:3] z8 | 
[V:4] z8 | 
[V:1] D8 | 
[V:2] d2f4g2 | 
[V:3] z8 | 
[V:4] z8 | 
[V:1] C4D2F2- | 
[V:2] e4d4- | 
[V:3] z8 | 
[V:4] z8 | 
[V:1] F2G2E4 | 
[V:2] d2c2c4- | 
[V:3] z8 | 
[V:4] z8 | 
[V:1] D6C2 | 
[V:2] c4=B4 | 
[V:3] z8 | 
[V:4] z8 | 
[V:1] C8 | 
[V:2] c8- | 
[V:3] z8 | 
[V:4] z8 | 
[V:1] z4G4 | 
[V:2] c8 | 
[V:3] z8 | 
[V:4] z8 | 
[V:1] A4=B4 | 
[V:2] z4G4 | 
[V:3] z8 | 
[V:4] z8 | 
[V:1] c3=BG4 | 
[V:2] A4B4 | 
[V:3] z8 | 
[V:4] z8 | 
[V:1] z4d4 | 
[V:2] c3BG4 | 
[V:3] z8 | 
[V:4] z8 | 
[V:1] =B2G2A4 | 
[V:2] z4d4 | 
[V:3] z8 | 
[V:4] z8 | 
[V:1] G4c4 | 
[V:2] B2G2A4 | 
[V:3] z8 | 
[V:4] z8 | 
[V:1] d4e4 | 
[V:2] G4c4 | 
[V:3] z8 | 
[V:4] z8 | 
[V:1] d2=B4G2 | 
[V:2] d4e4 | 
[V:3] z8 | 
[V:4] z8 | 
[V:1] A4=B4 | 
[V:2] f4g4- | 
[V:3] z8 | 
[V:4] z8 | 
[V:1] G8 | 
[V:2] g4c4- | 
[V:3] z8 | 
[V:4] z8 | 
[V:1] c6=B2 | 
[V:2] c2B2A2G2 | 
[V:3] z8 | 
[V:4] z8 | 
[V:1] A2G2c4 | 
[V:2] c4e4 | 
[V:3] z8 | 
[V:4] z8 | 
[V:1] d4=B4- | 
[V:2] d2g4f2 | 
[V:3] z8 | 
[V:4] z8 | 
[V:1] B2A2=B4 | 
[V:2] e4z2G2 | 
[V:3] z8 | 
[V:4] z8 | 
[V:1] z4G4 | 
[V:2] F2G4A2 | 
[V:3] z8 | 
[V:4] z8 | 
[V:1] F2G4A2 | 
[V:2] B4c4 | 
[V:3] z8 | 
[V:4] z8 | 
[V:1] =B3Ac4 | 
[V:2] d4c2f2- | 
[V:3] z8 | 
[V:4] z8 | 
[V:1] d2e2c2d2- | 
[V:2] f2g2a2f2 | 
[V:3] z8 | 
[V:4] z8 | 
[V:1] d2G2A2=B2 | 
[V:2] g2z2c2d2 | 
[V:3] z8 | 
[V:4] z8 | 
[V:1] G4E2F2 | 
[V:2] e2c4A2 | 
[V:3] z8 | 
[V:4] z8 | 
[V:1] G4A4 | 
[V:2] B2c4d2- | 
[V:3] z8 | 
[V:4] z8 | 
[V:1] F2D2z2=B2 | 
[V:2] d2B2G2z2 | 
[V:3] z8 | 
[V:4] z8 | 
[V:1] c2d4e2- | 
[V:2] e2f2g4 | 
[V:3] z8 | 
[V:4] z8 | 
[V:1] e2c2d4 | 
[V:2] c2e2d2f2 | 
[V:3] z8 | 
[V:4] z8 | 
[V:1] c2A2z2D2 | 
[V:2] e2c2d4 | 
[V:3] z8 | 
[V:4] z8 | 
[V:1] E2F2G2A2 | 
[V:2] G2A2G2c2- | 
[V:3] z8 | 
[V:4] z8 | 
[V:1] G2c2=B2e2 | 
[V:2] c2e2d2g2- | 
[V:3] z8 | 
[V:4] z8 | 
[V:1] d2c4=B2 | 
[V:2] gfe2d4 | 
[V:3] z8 | 
[V:4] z8 | 
[V:1] c8 | 
[V:2] c8 | 
[V:3] z8 | 
[V:4] z8 | 
[V:1] z4c4 | 
[V:2] z8 | 
[V:3] z8 | 
[V:4] (3C8B,2A,2 | 
[V:1] =B4G4 | 
[V:2] d8 | 
[V:3] z8 | 
[V:4] G,8- | 
[V:1] d6c2 | 
[V:2] B4G4 | 
[V:3] z8 | 
[V:4] G,8 | 
[V:1] A4c4 | 
[V:2] A8 | 
[V:3] z8 | 
[V:4] F,8 | 
[V:1] =B4G4 | 
[V:2] G4B4 | 
[V:3] z8 | 
[V:4] G,8 | 
[V:1] z8 | 
[V:2] c4d4- | 
[V:3] z8 | 
[V:4] A,4B,4 | 
[V:1] z8 | 
[V:2] d4e4 | 
[V:3] z8 | 
[V:4] G,8 | 
[V:1] z8 | 
[V:2] f4g4- | 
[V:3] z8 | 
[V:4] A,4G,4 | 
[V:1] z8 | 
[V:2] g2f2e4 | 
[V:3] z8 | 
[V:4] B,4C4 | 
[V:1] z8 | 
[V:2] d4f4 | 
[V:3] z8 | 
[V:4] D8 | 
[V:1] z8 | 
[V:2] e4a4- | 
[V:3] z8 | 
[V:4] A,8 | 
[V:1] z8 | 
[V:2] a4g4 | 
[V:3] z8 | 
[V:4] B,8 | 
[V:1] z8 | 
[V:2] a8 | 
[V:3] z8 | 
[V:4] A,8 | 
[V:1] z8 | 
[V:2] z4f4 | 
[V:3] z8 | 
[V:4] D8- | 
[V:1] z8 | 
[V:2] d2f2g2a2- | 
[V:3] z8 | 
[V:4] D8 | 
[V:1] z8 | 
[V:2] a2g2e4 | 
[V:3] z8 | 
[V:4] C8 | 
[V:1] z8 | 
[V:2] f4d2f2 | 
[V:3] z8 | 
[V:4] D8 | 
[V:1] z8 | 
[V:2] e2d3cB2 | 
[V:3] z8 | 
[V:4] G,8 | 
[V:1] z8 | 
[V:2] A4f4 | 
[V:3] z8 | 
[V:4] A,6F,2 | 
[V:1] z8 | 
[V:2] e2d2d4- | 
[V:3] z8 | 
[V:4] G,4D,4 | 
[V:1] z8 | 
[V:2] d4^c4 | 
[V:3] z8 | 
[V:4] E,8 | 
[V:1] z8 | 
[V:2] d8 | 
[V:3] z8 | 
[V:4] D,8 | 
[V:1] z8 | 
[V:2] z8 | 
[V:3] z8 | 
[V:4] G,4F,4 | 
[V:1] z8 | 
[V:2] g4f4 | 
[V:3] z8 | 
[V:4] G,4A,4 | 
[V:1] z8 | 
[V:2] g4a4 | 
[V:3] z8 | 
[V:4] B,4C2A,2- | 
[V:1] z8 | 
[V:2] f2g4e2 | 
[V:3] z8 | 
[V:4] A,2B,2C4 | 
[V:1] z8 | 
[V:2] d2g4^f2 | 
[V:3] z8 | 
[V:4] G,2B,2A,4 | 
[V:1] z8 | 
[V:2] g8- | 
[V:3] G8- | 
[V:4] G,8 | 
[V:1] z8 | 
[V:2] g8 | 
[V:3] G8- | 
[V:4] z8 | 
[V:1] d8- | 
[V:2] z8 | 
[V:3] G8- | 
[V:4] B,8- | 
[V:1] d8 | 
[V:2] d8 | 
[V:3] G8 | 
[V:4] B,4C4 | 
[V:1] =B6c2 | 
[V:2] g8 | 
[V:3] G8- | 
[V:4] D8- | 
[V:1] d8 | 
[V:2] g8 | 
[V:3] G8 | 
[V:4] D8 | 
[V:1] e4e4 | 
[V:2] g8 | 
[V:3] c8- | 
[V:4] C8 | 
[V:1] e8 | 
[V:2] a6g2 | 
[V:3] c8- | 
[V:4] A,8- | 
[V:1] c6=B2 | 
[V:2] e8 | 
[V:3] c8- | 
[V:4] A,8 | 
[V:1] A8 | 
[V:2] f4f4 | 
[V:3] c8 | 
[V:4] F,8 | 
[V:1] G8 | 
[V:2] d4g4 | 
[V:3] B8 | 
[V:4] G,4D4 | 
[V:1] z4A4 | 
[V:2] a2^f4e2 | 
[V:3] A8 | 
[V:4] C8 | 
[V:1] =B4B4 | 
[V:2] g8 | 
[V:3] G8- | 
[V:4] D8- | 
[V:1] G8 | 
[V:2] z4G4 | 
[V:3] G8 | 
[V:4] D8 | 
[V:1] D4G4- | 
[V:2] B6c2 | 
[V:3] G8- | 
[V:4] z8 | 
[V:1] G2A2B4- | 
[V:2] d4_e4 | 
[V:3] G8 | 
[V:4] z8 | 
[V:1] B2c2d4 | 
[V:2] d4B4 | 
[V:3] z8 | 
[V:4] G,6F,2 | 
[V:1] G4A4- | 
[V:2] c4d4- | 
[V:3] z8 | 
[V:4] E,4D,4 | 
[V:1] A2G2G4 | 
[V:2] d4d4 | 
[V:3] z8 | 
[V:4] F,4G,4 | 
[V:1] E4F4 | 
[V:2] c8 | 
[V:3] z8 | 
[V:4] A,8 | 
[V:1] G8 | 
[V:2] B4d4 | 
[V:3] d8- | 
[V:4] G,8- | 
[V:1] B8 | 
[V:2] G4g4 | 
[V:3] d8- | 
[V:4] G,8 | 
[V:1] A8 | 
[V:2] a4f4 | 
[V:3] d8- | 
[V:4] F,8 | 
[V:1] G4d4- | 
[V:2] d4g4- | 
[V:3] d8 | 
[V:4] G,8- | 
[V:1] d2c2B4 | 
[V:2] g8 | 
[V:3] d8- | 
[V:4] G,8 | 
[V:1] A6G2 | 
[V:2] ^f6e2 | 
[V:3] d8 | 
[V:4] D,8 | 
[V:1] G8- | 
[V:2] g8 | 
[V:3] G8- | 
[V:4] z4D4- | 
[V:1] G8 | 
[V:2] z8 | 
[V:3] G8 | 
[V:4] D8 | 
[V:1] z4G4- | 
[V:2] G8 | 
[V:3] z4d4- | 
[V:4] B,8 | 
[V:1] G4G4- | 
[V:2] B4B4 | 
[V:3] d8 | 
[V:4] G,8- | 
[V:1] G4G4 | 
[V:2] B8 | 
[V:3] d8- | 
[V:4] G,8 | 
[V:1] G8 | 
[V:2] G8 | 
[V:3] d8 | 
[V:4] B,8 | 
[V:1] A8 | 
[V:2] e8 | 
[V:3] c8- | 
[V:4] A,8 | 
[V:1] A4A4 | 
[V:2] z4f4- | 
[V:3] c8- | 
[V:4] F,8- | 
[V:1] A6=B2 | 
[V:2] f2g2a4- | 
[V:3] c8- | 
[V:4] F,8 | 
[V:1] c8 | 
[V:2] a2e2^f4 | 
[V:3] c8 | 
[V:4] A,8 | 
[V:1] d8 | 
[V:2] g4d2g2 | 
[V:3] B8 | 
[V:4] G,8 | 
[V:1] c4d4 | 
[V:2] f2e2g4 | 
[V:3] A4G4- | 
[V:4] z8 | 
[V:1] =B4A4- | 
[V:2] d4z4 | 
[V:3] G4F4 | 
[V:4] z8 | 
[V:1] A2G4F2 | 
[V:2] d4_e4 | 
[V:3] B8 | 
[V:4] G,8 | 
[V:1] A8 | 
[V:2] d4f4- | 
[V:3] A8 | 
[V:4] D,8- | 
[V:1] z8 | 
[V:2] f2g2a4 | 
[V:3] d6c2 | 
[V:4] D,8 | 
[V:1] z8 | 
[V:2] d4g4- | 
[V:3] B4G4 | 
[V:4] D8 | 
[V:1] z8 | 
[V:2] g2^f2^f2e2 | 
[V:3] A8 | 
[V:4] C8 | 
[V:1] z8 | 
[V:2] (3:2:2g8d4- | 
[V:3] G8- | 
[V:4] (3:2:2D8B,4- | 
[V:1] z8 | 
[V:2] (3:2:2d4g8 | 
[V:3] G8 | 
[V:4] (3B,4G,4B,4 | 
[V:1] z8 | 
[V:2] (3f4e6d2 | 
[V:3] z8 | 
[V:4] (3:2:2A,4G,8 | 
[V:1] z8 | 
[V:2] (3:2:2d8^c4 | 
[V:3] z8 | 
[V:4] (3:2:2F,4E,8 | 
[V:1] A4G2B2- | 
[V:2] (3:2:2d8B4 | 
[V:3] d8- | 
[V:4] (3:2:2D,8G,4- | 
[V:1] B2c2A4 | 
[V:2] (3:2:2G4A8 | 
[V:3] d4d4- | 
[V:4] (3:2:2G,4F,8 | 
[V:1] (3:2:5G4F2E2F2E2 | 
[V:2] (3B4G4B4- | 
[V:3] d8 | 
[V:4] G,8 | 
[V:1] G2^F4E2 | 
[V:2] (3:2:2B4A8 | 
[V:3] d8 | 
[V:4] D,8 | 
[V:1] G8 | 
[V:2] B6c2 | 
[V:3] G8- | 
[V:4] D8- | 
[V:1] =B6c2 | 
[V:2] d4G4 | 
[V:3] G8- | 
[V:4] D4D4- | 
[V:1] d4G4 | 
[V:2] g8 | 
[V:3] G8- | 
[V:4] D8 | 
[V:1] d8 | 
[V:2] g6f2 | 
[V:3] G8 | 
[V:4] D8 | 
[V:1] =B4B4 | 
[V:2] e2d2d4- | 
[V:3] g8- | 
[V:4] G,8- | 
[V:1] d4d4 | 
[V:2] d8 | 
[V:3] g8 | 
[V:4] G,8 | 
[V:1] d4e4 | 
[V:2] z8 | 
[V:3] g8 | 
[V:4] B,4C4 | 
[V:1] d2d4c=B | 
[V:2] z8 | 
[V:3] f8- | 
[V:4] D8- | 
[V:1] A4A4 | 
[V:2] z8 | 
[V:3] f8 | 
[V:4] D8- | 
[V:1] z4A4 | 
[V:2] z8 | 
[V:3] f8 | 
[V:4] D8 | 
[V:1] =B4B4 | 
[V:2] (3:2:2G8G4- | 
[V:3] g8- | 
[V:4] z8 | 
[V:1] G4d4 | 
[V:2] (3:2:2G4G8 | 
[V:3] g8 | 
[V:4] z8 | 
[V:1] d4=B4 | 
[V:2] (3:2:2d8d4 | 
[V:3] g8 | 
[V:4] G,8- | 
[V:1] G4G4 | 
[V:2] (3:2:2B8B4 | 
[V:3] d8- | 
[V:4] G,8 | 
[V:1] =B4B4 | 
[V:2] G4d4- | 
[V:3] d8 | 
[V:4] G,8 | 
[V:1] A6c2- | 
[V:2] d2c2A4- | 
[V:3] z8 | 
[V:4] F,8- | 
[V:1] c4c4- | 
[V:2] A4c4 | 
[V:3] z8 | 
[V:4] F,8 | 
[V:1] c2A6 | 
[V:2] d2c2f4 | 
[V:3] z8 | 
[V:4] F,8 | 
[V:1] G4d4 | 
[V:2] e2d4B2- | 
[V:3] g8- | 
[V:4] G,8- | 
[V:1] d4=B4- | 
[V:2] B2c2d4 | 
[V:3] g4g4- | 
[V:4] G,8 | 
[V:1] B4G2G2 | 
[V:2] e2d3cB2 | 
[V:3] g8 | 
[V:4] G,8 | 
[V:1] A4A4 | 
[V:2] A4d4- | 
[V:3] f8- | 
[V:4] D,8- | 
[V:1] D8 | 
[V:2] d2c2B4 | 
[V:3] f4f4- | 
[V:4] D,8- | 
[V:1] z8 | 
[V:2] A8 | 
[V:3] f8 | 
[V:4] D,8 | 
[V:1] =B6c2 | 
[V:2] G6A2 | 
[V:3] g8- | 
[V:4] z8 | 
[V:1] d4e4- | 
[V:2] B4c4- | 
[V:3] g4g4- | 
[V:4] z8 | 
[V:1] e2d2d4- | 
[V:2] c4d4 | 
[V:3] g4f4 | 
[V:4] z8 | 
[V:1] d4^c4 | 
[V:2] A8 | 
[V:3] e8 | 
[V:4] z8 | 
[V:1] d8 | 
[V:2] z4B4 | 
[V:3] d8- | 
[V:4] G,8- | 
[V:1] G8 | 
[V:2] B4G4 | 
[V:3] d8 | 
[V:4] G,4G,4- | 
[V:1] B8 | 
[V:2] g8 | 
[V:3] z8 | 
[V:4] G,8 | 
[V:1] A6B2 | 
[V:2] c4d4 | 
[V:3] z8 | 
[V:4] F,8- | 
[V:1] c4d4 | 
[V:2] c4f4- | 
[V:3] z8 | 
[V:4] F,4F,4- | 
[V:1] c4A4 | 
[V:2] f4f4 | 
[V:3] z8 | 
[V:4] F,8 | 
[V:1] G4B4 | 
[V:2] e4d4- | 
[V:3] z8 | 
[V:4] G,8- | 
[V:1] A2G3FE2 | 
[V:2] d2c2d4 | 
[V:3] z8 | 
[V:4] G,4G,4- | 
[V:1] D8 | 
[V:2] B4B4 | 
[V:3] g8- | 
[V:4] G,4F,4 | 
[V:1] E8 | 
[V:2] c8 | 
[V:3] g8 | 
[V:4] E,8 | 
[V:1] F8 | 
[V:2] z4d4- | 
[V:3] a8- | 
[V:4] D,8 | 
[V:1] D8 | 
[V:2] d4A4 | 
[V:3] a8 | 
[V:4] z4F,4 | 
[V:1] z8 | 
[V:2] B4c4 | 
[V:3] g8 | 
[V:4] G,4E,4 | 
[V:1] z8 | 
[V:2] d8 | 
[V:3] f8 | 
[V:4] D,8 | 
[V:1] z8 | 
[V:2] c8- | 
[V:3] e8- | 
[V:4] A,8- | 
[V:1] A8 | 
[V:2] c8 | 
[V:3] e8 | 
[V:4] A,8 | 
[V:1] F6G2 | 
[V:2] A4z4 | 
[V:3] d8- | 
[V:4] D,8- | 
[V:1] A4B4 | 
[V:2] F6G2 | 
[V:3] d8- | 
[V:4] D,8- | 
[V:1] A8 | 
[V:2] A4F4 | 
[V:3] d8- | 
[V:4] D,8- | 
[V:1] F4F4 | 
[V:2] A6B2 | 
[V:3] d8 | 
[V:4] D,8 | 
[V:1] G4G4 | 
[V:2] G6B2- | 
[V:3] z8 | 
[V:4] z4G,4- | 
[V:1] D4z4 | 
[V:2] B2c2d4 | 
[V:3] z8 | 
[V:4] G,8 | 
[V:1] A4A4 | 
[V:2] A4f4 | 
[V:3] z8 | 
[V:4] F,4D,4 | 
[V:1] G4B4 | 
[V:2] e4d4- | 
[V:3] z8 | 
[V:4] E,4G,4 | 
[V:1] A6G2 | 
[V:2] d8 | 
[V:3] z8 | 
[V:4] F,8 | 
[V:1] G8 | 
[V:2] B4G4 | 
[V:3] z8 | 
[V:4] G,8- | 
[V:1] z4d4- | 
[V:2] g6f2 | 
[V:3] z8 | 
[V:4] G,8 | 
[V:1] d4d4- | 
[V:2] d8 | 
[V:3] G8- | 
[V:4] z8 | 
[V:1] d4c4 | 
[V:2] z4g4- | 
[V:3] G8 | 
[V:4] B,4C4 | 
[V:1] B8 | 
[V:2] g8 | 
[V:3] G8 | 
[V:4] D8 | 
[V:1] A4c4- | 
[V:2] a6gf | 
[V:3] c8- | 
[V:4] A,8- | 
[V:1] c4c4- | 
[V:2] e8 | 
[V:3] c8 | 
[V:4] A,8 | 
[V:1] c2=B2A4 | 
[V:2] f8 | 
[V:3] c8 | 
[V:4] F,8 | 
[V:1] G8 | 
[V:2] d8- | 
[V:3] B8 | 
[V:4] G,8 | 
[V:1] A8 | 
[V:2] d8- | 
[V:3] A8- | 
[V:4] D,8- | 
[V:1] ^F6E2 | 
[V:2] d8 | 
[V:3] A8 | 
[V:4] D,8 | 
[V:1] G8- | 
[V:2] d8 | 
[V:3] G8- | 
[V:4] z8 | 
[V:1] G4F2E2 | 
[V:2] B8 | 
[V:3] G8 | 
[V:4] z8 | 
[V:1] D8 | 
[V:2] z4G4 | 
[V:3] z8 | 
[V:4] z8 | 
[V:1] z4D4 | 
[V:2] F4G4 | 
[V:3] z8 | 
[V:4] z8 | 
[V:1] C4D4 | 
[V:2] A4B4 | 
[V:3] z8 | 
[V:4] z8 | 
[V:1] E4F4 | 
[V:2] c4A4 | 
[V:3] z8 | 
[V:4] z8 | 
[V:1] G4E4 | 
[V:2] G8 | 
[V:3] z8 | 
[V:4] z8 | 
[V:1] D8 | 
[V:2] z4d4 | 
[V:3] z8 | 
[V:4] z8 | 
[V:1] z4A4 | 
[V:2] e4f4 | 
[V:3] z8 | 
[V:4] z8 | 
[V:1] =B4c4 | 
[V:2] g4e4 | 
[V:3] z8 | 
[V:4] z8 | 
[V:1] d4=B4 | 
[V:2] d8 | 
[V:3] z8 | 
[V:4] z8 | 
[V:1] A8 | 
[V:2] z4a4 | 
[V:3] z8 | 
[V:4] z8 | 
[V:1] z4e4 | 
[V:2] g4e4 | 
[V:3] z8 | 
[V:4] z8 | 
[V:1] d4=B4 | 
[V:2] f4d4 | 
[V:3] z8 | 
[V:4] z8 | 
[V:1] c4A4 | 
[V:2] c8 | 
[V:3] z8 | 
[V:4] z8 | 
[V:1] G4A4- | 
[V:2] B4c4 | 
[V:3] z8 | 
[V:4] z8 | 
[V:1] A2G2F4 | 
[V:2] A4d4- | 
[V:3] z8 | 
[V:4] z8 | 
[V:1] E6D2 | 
[V:2] d4^c4 | 
[V:3] z8 | 
[V:4] z8 | 
[V:1] D8 | 
[V:2] d6cB | 
[V:3] z8 | 
[V:4] z8 | 
[V:1] C8 | 
[V:2] A8 | 
[V:3] z8 | 
[V:4] z8 | 
[V:1] [M:2/1](3D6E2F4 | 
[V:2] z8 | 
[V:3] z8 | 
[V:4] [M:2/1](3:2:1D,12 | 
[V:1] (3:2:2G4E8 | 
[V:2] z8 | 
[V:3] z8 | 
[V:4] (3:2:1C,12 | 
[V:1] (3:2:2z4D8 | 
[V:2] z8 | 
[V:3] z8 | 
[V:4] (3:2:2D,8E,4 | 
[V:1] (3:2:2C4D8 | 
[V:2] z8 | 
[V:3] z8 | 
[V:4] (3:2:2F,8G,4 | 
[V:1] (3E4F4D4- | 
[V:2] z8 | 
[V:3] z8 | 
[V:4] (3:2:2E,4D,8 | 
[V:1] (3D4A4=B4 | 
[V:2] z8 | 
[V:3] z8 | 
[V:4] (3G,4F,4G,4 | 
[V:1] (3:2:2c4A8 | 
[V:2] z8 | 
[V:3] z8 | 
[V:4] (3:2:2A,8C4 | 
[V:1] (3F4E4G4 | 
[V:2] z8 | 
[V:3] z8 | 
[V:4] (3D4A,4B,4 | 
[V:1] (3:2:2F4A8 | 
[V:2] z8 | 
[V:3] z8 | 
[V:4] (3:2:2A,8F,4 | 
[V:1] (3:2:4B4A4G2F2 | 
[V:2] z8 | 
[V:3] z8 | 
[V:4] (3G,4A,4B,4 | 
[V:1] (3E4D4F4- | 
[V:2] z8 | 
[V:3] z8 | 
[V:4] (3:2:2C4D8 | 
[V:1] (3F4E4F4 | 
[V:2] z8 | 
[V:3] z8 | 
[V:4] (3D,4C,4D,4 | 
[V:1] (3G4A4D4 | 
[V:2] z8 | 
[V:3] z8 | 
[V:4] (3E,4F,4G,4 | 
[V:1] (3:2:2E4C8 | 
[V:2] z8 | 
[V:3] z8 | 
[V:4] (3:2:2E,8A,4- | 
[V:1] (3:2:5F4G2F2E2D2 | 
[V:2] z8 | 
[V:3] z8 | 
[V:4] (3:2:2A,4G,8 | 
[V:1] (3:2:2D8^C4 | 
[V:2] z8 | 
[V:3] z8 | 
[V:4] (3:2:2F,4E,8 | 
[V:1] (3:2:1D8/1023- | 
[V:2] z8 | 
[V:3] z8 | 
[V:4] (3:2:1D,8/1023- | 
[V:1] (3:2:1D12 | 
[V:2] z8 | 
[V:3] z8 | 
[V:4] (3:2:1D,12- | 
[V:1] (3:2:1z12 | 
[V:2] f8 | 
[V:3] d8- | 
[V:4] (3:2:1D,12- | 
[V:1] (3:2:1z12 | 
[V:2] g4a4- | 
[V:3] d8 | 
[V:4] (3:2:1D,12 | 
[V:1] [M:4/2]d8 | 
[V:2] a4f4- | 
[V:3] d8- | 
[V:4] (3:2:1z12 | 
[V:1] d4d4 | 
[V:2] f2g2^f2e2 | 
[V:3] d8 | 
[V:4] (3:2:1z12 | 
[V:1] =B4B4 | 
[V:2] g8- | 
[V:3] G8- | 
[V:4] [M:4/2]D8 | 
[V:1] G4G4 | 
[V:2] g8 | 
[V:3] G8- | 
[V:4] B,4C4 | 
[V:1] =B4B2c2 | 
[V:2] z4G4 | 
[V:3] G8- | 
[V:4] D8- | 
[V:1] d8- | 
[V:2] B6c2 | 
[V:3] G8 | 
[V:4] D8 | 
[V:1] d8 | 
[V:2] d8 | 
[V:3] z8 | 
[V:4] G,8- | 
[V:1] z8 | 
[V:2] g8 | 
[V:3] d8 | 
[V:4] G,8 | 
[V:1] A8 | 
[V:2] z8 | 
[V:3] d8- | 
[V:4] F,8 | 
[V:1] =B4B4 | 
[V:2] g8 | 
[V:3] d8 | 
[V:4] G,8 | 
[V:1] A4c4- | 
[V:2] e4e4 | 
[V:3] c8- | 
[V:4] A,8 | 
[V:1] c2=B2A4 | 
[V:2] f4f4 | 
[V:3] c8 | 
[V:4] F,8 | 
[V:1] G4d4 | 
[V:2] d8 | 
[V:3] B8- | 
[V:4] G,8- | 
[V:1] c2B3AG2 | 
[V:2] _e8 | 
[V:3] B8 | 
[V:4] G,8 | 
[V:1] (3:2:2^F8G4 | 
[V:2] d8 | 
[V:3] A8- | 
[V:4] D,8- | 
[V:1] (3:2:2^F8E4 | 
[V:2] d8 | 
[V:3] A8 | 
[V:4] D,8 | 
[V:1] G8 | 
[V:2] B4B4 | 
[V:3] G8 | 
[V:4] z4D4- | 
[V:1] z4G4 | 
[V:2] A4G4 | 
[V:3] F4G4- | 
[V:4] D4B,4 | 
[V:1] G4G4 | 
[V:2] d8 | 
[V:3] G4B4 | 
[V:4] G,8 | 
[V:1] A4G2F2 | 
[V:2] z4d4 | 
[V:3] A4B4 | 
[V:4] F,4G,4 | 
[V:1] E6D2 | 
[V:2] c4A4- | 
[V:3] c8 | 
[V:4] A,8 | 
[V:1] D4F4 | 
[V:2] A2B2A2B2 | 
[V:3] d8 | 
[V:4] D,8 | 
[V:1] E4F4 | 
[V:2] c4d4 | 
[V:3] G4A4 | 
[V:4] E,4D,4 | 
[V:1] G4A4- | 
[V:2] c2B2A4 | 
[V:3] G4c4- | 
[V:4] E,4F,4- | 
[V:1] A2G2G4- | 
[V:2] z4d4- | 
[V:3] c4B4 | 
[V:4] F,4G,4 | 
[V:1] G2^F2F2E2 | 
[V:2] d4d4 | 
[V:3] A8 | 
[V:4] D,8 | 
[V:1] G8- | 
[V:2] d8 | 
[V:3] G8 | 
[V:4] G,8- | 
[V:1] G8 | 
[V:2] B6c2 | 
[V:3] z8 | 
[V:4] G,8 | 
[V:1] z8 | 
[V:2] d4g4- | 
[V:3] G8- | 
[V:4] D8- | 
[V:1] (3:2:2d8d4- | 
[V:2] g8 | 
[V:3] G8 | 
[V:4] D4B,4- | 
[V:1] (3:2:2d4d8 | 
[V:2] g8 | 
[V:3] G8 | 
[V:4] B,8 | 
[V:1] c6=B2 | 
[V:2] e8 | 
[V:3] c8- | 
[V:4] A,8 | 
[V:1] A4A4 | 
[V:2] f4f4 | 
[V:3] c8 | 
[V:4] F,8 | 
[V:1] G4^F4 | 
[V:2] d4^c4 | 
[V:3] B4A4 | 
[V:4] G,4A,4 | 
[V:1] G4F2E2 | 
[V:2] d8 | 
[V:3] G8 | 
[V:4] B,6C2 | 
[V:1] D4G4- | 
[V:2] B8 | 
[V:3] G8 | 
[V:4] D8 | 
[V:1] G4B4 | 
[V:2] z4G4 | 
[V:3] d8- | 
[V:4] G,8 | 
[V:1] A4G4- | 
[V:2] A4B4- | 
[V:3] d8 | 
[V:4] F,4G,4- | 
[V:1] G4F4 | 
[V:2] B4A4 | 
[V:3] d8 | 
[V:4] G,4D,4 | 
[V:1] G8 | 
[V:2] c8 | 
[V:3] G8 | 
[V:4] E,8 | 
[V:1] A6F2 | 
[V:2] d4A4- | 
[V:3] z2d6 | 
[V:4] D,8- | 
[V:1] F8 | 
[V:2] A4A4 | 
[V:3] d8 | 
[V:4] D,8 | 
[V:1] z4c4 | 
[V:2] A4z4 | 
[V:3] c8- | 
[V:4] F,8- | 
[V:1] B2A4G2 | 
[V:2] f6e2 | 
[V:3] c8 | 
[V:4] F,8 | 
[V:1] G4F2G2 | 
[V:2] d4c2d2 | 
[V:3] B4A2G2- | 
[V:4] z8 | 
[V:1] B2A4G2 | 
[V:2] e2f2d4 | 
[V:3] G2F2B4 | 
[V:4] z8 | 
[V:1] A2F3GA2 | 
[V:2] c3dB2A2 | 
[V:3] A4d3c | 
[V:4] z8 | 
[V:1] D2G2^F3E | 
[V:2] G2d4c2 | 
[V:3] B2G2A4 | 
[V:4] z8 | 
[V:1] G8 | 
[V:2] d8 | 
[V:3] G8 | 
[V:4] z8 | 
[V:1] B8 | 
[V:2] g4g4 | 
[V:3] d6d2- | 
[V:4] G,8 | 
[V:1] A8 | 
[V:2] ^f2^f4e2 | 
[V:3] d4d4 | 
[V:4] D,8 | 
[V:1] G8 | 
[V:2] g8 | 
[V:3] G8- | 
[V:4] D6D2- | 
[V:1] z8 | 
[V:2] g8 | 
[V:3] G8 | 
[V:4] D4D4 | 
[V:1] z8 | 
[V:2] z8 | 
[V:3] g8 | 
[V:4] G,6B,2- | 
[V:1] z8 | 
[V:2] z8 | 
[V:3] g4f4- | 
[V:4] B,2C2A,2D2- | 
[V:1] z8 | 
[V:2] z8 | 
[V:3] f4f4 | 
[V:4] D2C2A,4 | 
[V:1] =B8- | 
[V:2] d4e4 | 
[V:3] g8 | 
[V:4] G,8- | 
[V:1] B8 | 
[V:2] d4g4- | 
[V:3] g4d4- | 
[V:4] G,8- | 
[V:1] =B8 | 
[V:2] g2f2e2d2 | 
[V:3] d4z4 | 
[V:4] G,8- | 
[V:1] d8 | 
[V:2] d4B4 | 
[V:3] g6g2- | 
[V:4] G,8 | 
[V:1] z4A4- | 
[V:2] G2B2A2d2- | 
[V:3] g4f4- | 
[V:4] z8 | 
[V:1] A2G2F4 | 
[V:2] d2B2A4 | 
[V:3] f2f6 | 
[V:4] D,8 | 
[V:1] E8 | 
[V:2] G8 | 
[V:3] g6g2- | 
[V:4] E,8 | 
[V:1] z4G4 | 
[V:2] c8 | 
[V:3] g2f2e4 | 
[V:4] C,8 | 
[V:1] F2A4B2 | 
[V:2] A4f4 | 
[V:3] d8 | 
[V:4] D,8 | 
[V:1] G4d4 | 
[V:2] e2d4c2 | 
[V:3] g8 | 
[V:4] B,8 | 
[V:1] c2d2e4- | 
[V:2] e8 | 
[V:3] a8 | 
[V:4] A,6B,2 | 
[V:1] e2d2d4- | 
[V:2] z4a4- | 
[V:3] g4f4 | 
[V:4] C4D4 | 
[V:1] d2^c2c2=B2 | 
[V:2] a8 | 
[V:3] e8 | 
[V:4] A,8 | 
[V:1] d8 | 
[V:2] a8 | 
[V:3] d8- | 
[V:4] D,8- | 
[V:1] z8 | 
[V:2] f8 | 
[V:3] d8 | 
[V:4] D,8 | 
[V:1] B8 | 
[V:2] g8 | 
[V:3] z4G4- | 
[V:4] G,8 | 
[V:1] G8 | 
[V:2] d8 | 
[V:3] G4G4 | 
[V:4] B,8 | 
[V:1] A4A4- | 
[V:2] z4e4- | 
[V:3] c8 | 
[V:4] A,8 | 
[V:1] A4G4 | 
[V:2] e4d4 | 
[V:3] c4B4 | 
[V:4] z4D4 | 
[V:1] A4c4 | 
[V:2] e4f4 | 
[V:3] A8 | 
[V:4] C8 | 
[V:1] =B4d4- | 
[V:2] g8 | 
[V:3] G8 | 
[V:4] D8 | 
[V:1] d2c2=B4 | 
[V:2] g8 | 
[V:3] d8 | 
[V:4] G,8 | 
[V:1] A6G2 | 
[V:2] ^f8 | 
[V:3] d8 | 
[V:4] D,8 | 
[V:1] G8 | 
[V:2] g8 | 
[V:3] G8- | 
[V:4] z4D4- | 
[V:1] z4d4- | 
[V:2] z8 | 
[V:3] G8 | 
[V:4] D4B,4 | 
[V:1] d4=B4- | 
[V:2] g8 | 
[V:3] z4d4 | 
[V:4] G,8 | 
[V:1] B2A2=B4 | 
[V:2] f4g4 | 
[V:3] d8 | 
[V:4] z4G,4 | 
[V:1] c4A4- | 
[V:2] e4f4 | 
[V:3] c8 | 
[V:4] A,4F,4 | 
[V:1] A2G2G4 | 
[V:2] d8 | 
[V:3] B8 | 
[V:4] G,8 | 
[V:1] A4F4 | 
[V:2] z4d4- | 
[V:3] A8 | 
[V:4] D,8 | 
[V:1] G2B2A2G2 | 
[V:2] d4d4 | 
[V:3] G4F2G2- | 
[V:4] z8 | 
[V:1] d4c2d2 | 
[V:2] B2G2z2G2 | 
[V:3] G2B2A2B2 | 
[V:4] z8 | 
[V:1] c2A2z2B2- | 
[V:2] A2F4G2 | 
[V:3] c4d4 | 
[V:4] z8 | 
[V:1] B2A2B2G2 | 
[V:2] B2c2d2e2- | 
[V:3] G2A2G2c2- | 
[V:4] z8 | 
[V:1] A2G2E2^F2 | 
[V:2] ecd2c3B | 
[V:3] c2B2A4 | 
[V:4] z8 | 
[V:1] G4z4 | 
[V:2] d8 | 
[V:3] G4z4 | 
[V:4] z8 | 
[V:1] B8 | 
[V:2] z8 | 
[V:3] d8 | 
[V:4] G,8 | 
[V:1] A8 | 
[V:2] z8 | 
[V:3] A8 | 
[V:4] F,8 | 
[V:1] G8 | 
[V:2] d8- | 
[V:3] B8 | 
[V:4] G,8 | 
[V:1] A8 | 
[V:2] d8 | 
[V:3] A8 | 
[V:4] D,8 | 
[V:1] G8 | 
[V:2] G8 | 
[V:3] c8 | 
[V:4] _E,8 | 
[V:1] F8 | 
[V:2] A4B4 | 
[V:3] d8 | 
[V:4] D,8 | 
[V:1] z4G4 | 
[V:2] c8 | 
[V:3] e8 | 
[V:4] C,8 | 
[V:1] F6G2 | 
[V:2] A8 | 
[V:3] d6e2 | 
[V:4] D,8- | 
[V:1] A8 | 
[V:2] d8- | 
[V:3] f8 | 
[V:4] D,4z4 | 
[V:1] B8 | 
[V:2] d8 | 
[V:3] g8 | 
[V:4] G,8 | 
[V:1] A6G2 | 
[V:2] d8 | 
[V:3] f4d4- | 
[V:4] D,6E,2 | 
[V:1] F4E4 | 
[V:2] A8- | 
[V:3] d4c4 | 
[V:4] F,2G,2A,4 | 
[V:1] F4D4 | 
[V:2] A8 | 
[V:3] d8 | 
[V:4] D,8 | 
[V:1] z4G4 | 
[V:2] G8 | 
[V:3] =B4c4 | 
[V:4] E,8 | 
[V:1] F8 | 
[V:2] A6B2 | 
[V:3] d8 | 
[V:4] D,8 | 
[V:1] G4A4 | 
[V:2] c4d4- | 
[V:3] G4F4 | 
[V:4] E,4D,4 | 
[V:1] B4G4- | 
[V:2] d4_e4 | 
[V:3] G4B4 | 
[V:4] z4G,4 | 
[V:1] G4^F4 | 
[V:2] d8 | 
[V:3] A8 | 
[V:4] D,8 | 
[V:1] G4d4- | 
[V:2] B8 | 
[V:3] G8 | 
[V:4] z8 | 
[V:1] d2c2B4 | 
[V:2] z4f4- | 
[V:3] d8 | 
[V:4] D,6E,2 | 
[V:1] A3GG4- | 
[V:2] f4d4- | 
[V:3] c4B4 | 
[V:4] F,4G,4 | 
[V:1] G2^F2F2E2 | 
[V:2] d4d4 | 
[V:3] A8 | 
[V:4] D,8 | 
[V:1] G8 |]  
[V:2] d8 |]  
[V:3] G8 |]  
[V:4] G,8 |]  



